X:1
T:Jesus Is Coming Again
T:R. H. Washburne, 1902
T:Jesus Is Coming Again
T:Public Domain
T:Public Domain
C:R. H. Washburne, 1902
Z:Public Domain
%%score ( 1 2 ) ( 3 4 )
L:1/8
M:6/8
K:Bb
V:1 treble 
V:2 treble 
V:3 bass 
V:4 bass 
V:1
 [DF]>[DF][DF] [EG]<[DF][DF] | [EG]>[EB][EB] [EB]3 | [DF]>[DB][DB] [DB]2 [DB]/[DB]/ | %3
w: 1.~Je- sus is com- ing! O|hear the glad song;|Com- ing a- gain, tho’ He’s|
w: 2.~Je- sus is com- ing! His|saints shall a- wake;|Com- ing a- gain, earth shall|
w: 3.~Je- sus is com- ing! His|prom- ise is true;|Com- ing to earth, and all|
w: 4.~Je- sus is com- ing! The|bells loud- ly ring;|Praise nev- er end- ing the|
w: 5~Je- sus is com- ing! O|quick- ly pre- pare|To en- ter with Him the|
 [=Ed]>[Ec][Ec] [_Ec]2 [EF] | [DF]>[DB][Ec] [Fd]2 [DB] | [Ec][EB][EG] [Ge]3 | %6
w: tar- ried so long; To|ga- ther His saints, a|ju- bi- lant throng;|
w: trem- ble and shake; Our|God’s wait- ing ones of|glo- ry par- take,|
w: things He’ll re- new; His|saints will re- joice and|wel- come Him, too,|
w: saints sweet- ly sing; He’s|com- ing to reign our|glor- i- ous King;|
w: home o- ver there, For-|ev- er to live in|man- sions so fair;|
 [DF]>[DB][DB] [EA]<[Ec][EF] | (D2 E D3) ||"^Refrain" [DF]>[DB][DB] [DB]<[DB][FB] | %9
w: Je- sus is com- ing a-|gain! * *||
w: Je- sus is com- ing a-|gain! * *||
w: Je- sus is com- ing a-|gain! * *|sus is com- ing, He’s com-|
w: Je- sus is com- ing a-|gain! * *||
w: Je- sus is com- ing a-|gain! * *||
 [FA]>[Fc][Fc] [Fc]3 | [EF]>[Ec][Ec] [Ec]<[Ec][EF] | [DB]>[DB][Fc] [Fd]2 [DB] | %12
w: |||
w: |||
w: ing a- gain, Je-|sus is com- ing, yes, com-|ing a- gain; He’ll ga-|
w: |||
w: |||
 [Fd]>[Fd][Fd] [Fd]2 [_Af] | [_Af]>[Ge][Ge] [EG]3 | [DF]>[FB][FB] [EA][Ec][EF] | (D2 E [DB]2) |] %16
w: ||||
w: ||||
w: ther His saints from hill-|top and plain; Je-|sus is com- ing a- gain!||
w: ||||
w: ||||
V:2
 x6 | x6 | x6 | x6 | x6 | x6 | x6 | B6 || x6 | x6 | x6 | x6 | x6 | x6 | x6 | B3- x2 |] %16
w: ||||||||||||||||
w: ||||||||||||||||
w: |||||||Je-|||||||||
V:3
 [B,,B,]>[B,,B,][B,,B,] [B,,B,]<[B,,B,][B,,B,] | [E,B,]>[E,G,][E,G,] [E,G,]3 | %2
 [B,,B,]>[B,,B,][B,,B,] [G,B,]2 [G,B,]/[G,B,]/ | [C,B,]>[C,B,][C,B,] [F,A,]2 [F,A,] | %4
 [B,,B,]>[B,,B,][B,,B,] [B,,B,]2 [B,,B,] | [E,G,][E,G,][E,B,] [E,B,]3 | %6
 [F,B,]>[F,B,][F,B,] [F,C]<[F,A,][F,A,] | (B,2 G, F,3) || %8
 [B,,F,]>[B,,F,][B,,F,] [B,,F,]<[B,,F,][D,B,] | [F,C]>[F,A,][F,A,] [F,A,]3 | %10
 [F,A,]>[F,A,][F,A,] [F,A,]<[F,A,][F,A,] | [G,B,]>[G,B,][F,A,] [B,,B,]2 [B,,B,] | %12
 [B,,B,]>[B,,B,][B,,B,] [B,,B,]2 [D,B,] | [E,B,]>[E,B,][E,B,] [E,B,]3 | %14
 [F,B,]>[F,D][F,D] [F,C][F,A,][F,A,] | (B,2 G, [B,,F,]2) |] %16
V:4
 x6 | x6 | x6 | x6 | x6 | x6 | x6 | B,,6 || x6 | x6 | x6 | x6 | x6 | x6 | x6 | B,,3- x2 |] %16

